X: 24072
T: Long Drop, The
R: reel
M: 4/4
K: Gmajor
|:gedg edBA|GEE2 EDB,D|G2GA BABc|dBeB dBAd|
g2dg edBA|GEE2 EDB,D|GFGA Bdge|dBAc BGG2:|
|:gBBA B2gB|B2gB aged|cBcd edef|gdbg edBd|
gBBA BBgB|BBgB aged|c2cd efge|dBAc BGG2:|

